X:1
T:Palm Leaf Rag
T:PALM  LEAF  RAG
T:SCOTT  JOPLIN
T:Composer of “Maple Leaf Rag”
T:Public Domain
T:Public Domain
T:Public Domain
C:Scott Joplin
Z:Public Domain
%%score { ( 1 3 ) | ( 2 4 ) }
L:1/8
Q:1/4=62
M:2/4
K:Bb
V:1 treble nm="Piano" snm="Pno."
V:3 treble 
V:2 bass 
V:4 bass 
V:1
"^Play a little slow" B/A/G/B/- B/A/G | F/G/A/F/- F2 | CD/E/ F/GA/ | B z z2 |:!mf! FG/A/- A/G/F | %5
 [FAf]2- [FAf]/e/c/^c/ | d/d'/b/f/ g/f/B/d/- | d/b/a/g/ g/fd/ | ef/e/- e/d/c | B2- B/d/g/b/ | %10
 a/f/d/A/- A/g/f/=e/ | d2- d z | FG/A/- A/G/F | [FAf]2- [FAf]/e/c/^c/ | d/d'/b/f/ _a/g/f/e/- | %15
 [ce]/^f/g/a/ c'/b/g/e/ | g/B/c/e/- e/f/[Bg] | [B-fb-]2 [Bb]/b/a/g/ | f/dc/ [=EB][_EAc] |1 %19
 [DB] (d/^c/ d/B/G/_G/) :|2 [DB] (df[fd']) |: [^fc']/[gb][Geg]/- [Geg]/[A=fa]/[Bgb] | %22
 [Ee]2- [Ee][Bgb] | [^cg]/[df][DBd]/- [DBd]/[E=ce]/[Fdf] | [B,B]2- [B,B]d | e/f/A/c/ e/fa/ | %26
 [eg]a/[eg]/- [eg]/a/c'/e/ | d/f/B/c/ d/fb/ | [dg]b/[dg]/- [dg]/b/[fd'] | %29
 [^fc']/[gb][Geg]/- [Geg]/[A=fa]/[Bgb] | [Ee]2- [Ee][Bgb] | [^cg]/[df][DBd]/- [DBd]/[E=ce]/[Fdf] | %32
 [B,B]2- [B,B][D_A] | [EG]>[GB] [Be]/G/B/c/ | [Bd]F (=E/G/B/^c/) | df/F/- F/d/c |1 B (df[fd']) :|2 %37
 B2- B ||[K:Eb] (G/_A/) |: (B/g/f/e/ B/=B/c/^c/) | d/[ac']d/ [ac']>B- | B/(g/f/e/ B/=B/c/^c/) | %42
 d/[ac']d/ [ac']>b- | b/f/g/a/- a/g/f/^f/ | g/^f/g/[ge']/- [ge']/d'/[ge']/c'/ | %45
 [fd']/b/f/[=eg]/- [eg]/[eg]/[_e=a] | b/c'/b/_a/ f/d/c/_c/ | (B/g/f/e/ B/=B/c/^c/) | %48
 d/[ac']d/ [ac']>B- | B/(g/f/e/ B/=B/c/^c/) | d/[ac']d/ [ac']>g- | g/e'/b/g/ e/g/f/e/ | %52
 c/=B/c/e/- e/c/=A/^F/ | G/_A/B G/FB/ |1 E{/c}B{/c} BG/A/ :|2 E2 [EGBe] z || (E/B/G/_G/ (F)[Bd]) | %57
 (E/B/G/_G/ F2) | =A/c/e/g/- g/f/e/A/ | B z z2 |:[K:Bb]!mf! FG/A/- A/G/F | [FAf]2- [FAf]/e/c/^c/ | %62
 d/d'/b/f/ g/f/B/d/- | d/b/a/g/ g/fd/ | ef/e/- e/d/c | B2- B/d/g/b/ | a/f/d/A/- A/g/f/=e/ | %67
 d2- d z | FG/A/- A/G/F | [FAf]2- [FAf]/e/c/^c/ | d/d'/b/f/ _a/g/f/e/- | [ce]/^f/g/a/ c'/b/g/e/ | %72
 g/B/c/e/- e/f/[Bg] | [B-fb-]2 [Bb]/b/a/g/ | f/dc/ [=EB][_EAc] |1 [DB] (d/^c/ d/B/G/_G/) :|2 %76
 [DB]2 [Bdfb] z |] %77
V:2
 B,/A,/G,/B,/- B,/A,/G, | F,/G,/A,/F,/- F,2 | C,F,/G,/ F,/E,C,/ | B,,[F,B,D] F,,[F,B,D] |: %4
 [C,C][F,A,E] F,,[F,A,E] | [C,C][F,A,E] F,,[F,A,E] | B,,[F,B,D] F,,[F,B,D] | %7
 B,,[F,B,D] [D,D][=B,,=B,] | [C,C][F,A,E] [F,,F,][^F,,^F,] | [G,,G,][G,B,D] G,,[B,D] | %10
 A,,[A,DF] A,,[A,^CG] | [DF]{/^G,,}!^!A,, !^!D,, z | C,[F,A,E] F,,[F,A,E] | C,[F,A,E] F,,[F,A,E] | %14
 B,,[F,B,D] G,,[G,=B,D] | C,[G,CE] [E,,E,][G,CE] | [E,,E,][G,CE] [G,,G,][E,,E,] | %17
 [D,,D,][F,B,D] [=E,,=E,][G,B,^C] | [F,,F,][F,B,D] [G,,G,][F,,F,] |1 [B,,B,] z z [=B,,=B,] :|2 %20
 [B,,B,] (FDB,) |:!f! E,[G,B,E] B,,[G,B,E] | (G,/^F,/G,/A,/ B,/)G,/E, | B,,[F,B,D] F,,[F,B,D] | %24
 (D,/^C,/D,/E,/ F,/)D,/F, | =C,[F,A,E] F,,[F,A,E] | A,,[F,CE] F,,[F,A,E] | B,,[F,B,D] F,,[F,B,D] | %28
 B,,[F,B,D] [D,D][B,,B,] | E,[G,B,E] B,,[G,B,E] | (G,/^F,/G,/A,/ B,/)G,/E, | %31
 B,,[F,B,D] F,,[F,B,D] | (D,/^C,/D,/E,/ F,/)D,/B,, | [E,,E,][G,B,E] [G,,G,][_G,,_G,] | %34
 [F,,F,][B,D] (^C/B,/G,/=E,/) | F,[B,D] F,[A,E] |1 [B,D] (FDB,) :|2 D2- D ||[K:Eb] z |: %39
 [E,,E,][B,EG] [G,,G,][_G,,_G,] | [F,,F,][B,DA] B,,[B,DA] | [E,,E,][B,EG] [G,,G,][_G,,_G,] | %42
 [F,,F,][B,DA] B,,[B,DA] | [D,,D,][B,DA] B,,[B,DA] | [E,,E,][B,EG] C,[CE] | F,[B,D] C,F, | %46
 z2 [B,DA]2 | [E,,E,][B,EG] [G,,G,][_G,,_G,] | [F,,F,][B,DA] B,,[B,DA] | %49
 [E,,E,][B,EG] [G,,G,][_G,,_G,] | [F,,F,][B,DA] B,,[B,DA] | [E,,E,][B,EG] G,,[B,_DE] | %52
 A,,[A,CE] =A,,[^F,CE] | B,,[G,B,E] B,,[A,B,D] |1 [E,G,B,] z z2 :|2 [E,G,B,][B,,B,] [E,,E,] z || %56
 (E,=E, (F,)B,,) | (E,=E,) F,2 | C,[F,=A,E] F,,[F,A,E] | B,,[F,B,D] F,,[F,B,D] |: %60
[K:Bb] [C,C][F,A,E] F,,[F,A,E] | C,[F,A,E] F,,[F,A,E] | B,,[F,B,D] F,,[F,B,D] | %63
 B,,[F,B,D] [D,D][=B,,=B,] | [C,C][F,A,E] [F,,F,][^F,,^F,] | [G,,G,][G,B,D] G,,[B,D] | %66
 A,,[A,DF] A,,[A,^CG] | [DF]{/^G,,}!^!A,, !^!D,, z | C,[F,A,E] F,,[F,A,E] | C,[F,A,E] F,,[F,A,E] | %70
 B,,[F,B,D] G,,[G,=B,D] | C,[G,CE] [E,,E,][G,CE] | [E,,E,][G,CE] [G,,G,][E,,E,] | %73
 [D,,D,][F,B,D] [=E,,=E,][G,B,^C] | [F,,F,][F,B,D] [G,,G,][F,,F,] |1 [B,,B,] z z [=B,,=B,] :|2 %76
 [B,,B,][F,,F,] [B,,,B,,] z |] %77
V:3
 x4 | x4 | x4 | x4 |: x4 | x4 | x4 | x4 | A>A- AA | x4 | x4 | x4 | x4 | x4 | x2 =B>=c- | x4 | x4 | %17
 x4 | x4 |1 x4 :|2 x4 |: x4 | x4 | x4 | x4 | x4 | x4 | x4 | x4 | x4 | x4 | x4 | x4 | x4 | x4 | %35
 x4 |1 x4 :|2 x3 ||[K:Eb] x |: x4 | x4 | x4 | x4 | x4 | x4 | x4 | d2 z2 | x4 | x4 | x4 | x4 | x4 | %52
 x4 | x4 |1 x4 :|2 x4 || x2 F2 | x4 | x4 | x4 |:[K:Bb] x4 | x4 | x4 | x4 | A>A- AA | x4 | x4 | x4 | %68
 x4 | x4 | x2 =B>c- | x4 | x4 | x4 | x4 |1 x4 :|2 x4 |] %77
V:4
 x4 | x4 | x4 | x4 |: x4 | x4 | x4 | x4 | x4 | x4 | x4 | x4 | x4 | x4 | x4 | x4 | x4 | x4 | x4 |1 %19
 x4 :|2 x4 |: x4 | x4 | x4 | x4 | x4 | x4 | x4 | x4 | x4 | x4 | x4 | x4 | x4 | x4 | x4 |1 x4 :|2 %37
 B,F,B,, ||[K:Eb] x |: x4 | x4 | x4 | x4 | x4 | x4 | x4 | B,,4 | x4 | x4 | x4 | x4 | x4 | x4 | %53
 x4 |1 x4 :|2 x4 || x2 F,2 | x4 | x4 | x4 |:[K:Bb] x4 | x4 | x4 | x4 | x4 | x4 | x4 | x4 | x4 | %69
 x4 | x4 | x4 | x4 | x4 | x4 |1 x4 :|2 x4 |] %77

